X: 1490
T: The Girl With The Blue Dress On
B: australian traditional tunes wiki
M:2/4
L:1/8
R: Polka
Q: 1/4=100
K:A
V:1 
c/d/|"A"ec/e/ "E7"dB/d/|"A"cA A/G/A|"E7"BG G/F/G|"A"BA Ac/d/|
ec/e/ "E7"dB/d/|"A"cA A/G/A|"E7"BG G/F/G|"A"BAA2|
"A"Ac/e/ a>a|"D"gff2|"E7"GB/d/ g>g|"A"fee2|
Ac/e/ a>a|"D"gf f>a|"E7"gb f>g|"A"aaa||
% abcbook-tune_id 6342d53a169b0c3c8fc53340


% abcbook-boost 0
% abcbook-tablature 
% abcbook-transpose 
% abcbook-lastupdated 1665324367621
% abcbook-soundfonts 
% abcbook-repeats 1
% NFF Book 2017 (was named as "Fred Holland's Polka" but now updated)

